src/pos-icons/microphone-minus.svg

<svg height="24" viewBox="0 0 24 24" width="24" xmlns="http://www.w3.org/2000/svg"><path d="m9 2a3 3 0 0 1 3 3v6a3 3 0 0 1 -3 3 3 3 0 0 1 -3-3v-6a3 3 0 0 1 3-3m7 9c0 3.5-2.56 6.43-6 6.93v3.07h-2v-3.07c-3.44-.5-6-3.43-6-6.93h2a5 5 0 0 0 5 5 5 5 0 0 0 5-5zm-1-6h8v2h-8z"/></svg>

<?xml version="1.0" encoding="UTF-8"?><!DOCTYPE svg PUBLIC "-//W3C//DTD SVG 1.1//EN" "http://www.w3.org/Graphics/SVG/1.1/DTD/svg11.dtd"><svg xmlns="http://www.w3.org/2000/svg" xmlns:xlink="http://www.w3.org/1999/xlink" version="1.1" id="mdi-microphone-minus" width="24" height="24" viewBox="0 0 24 24"><path d="M9,2A3,3 0 0,1 12,5V11A3,3 0 0,1 9,14A3,3 0 0,1 6,11V5A3,3 0 0,1 9,2M16,11C16,14.5 13.44,17.43 10,17.93V21H8V17.93C4.56,17.43 2,14.5 2,11H4A5,5 0 0,0 9,16A5,5 0 0,0 14,11H16M15,5H23V7H15V5Z" /></svg>
